X: 1
T: Nauhapolkka (Vironpolkka)
M: 2/4
L: 1/8
K: G
P: G:
d/c/ |: "G"BB Bc/B/ | "D7"AA AB/c/ | dd d/c/B/A/ | "G"GG G2 :: "C"ce ce | "G"Bd Bd | "D7"cD DF | "G"AG G2 :|
P: D:
K: D
a/g/ |: "D"ff fg/f/ | "A7"ee ef/g/ | aa a/g/f/e/ | "D"dd d2 :: "G"gb gb | "D"fa fa | "A7"gA Ac | "D"ed d2 :|

%%sep 1 1 500

